X: 1
T: SARATOGA -- HORNPIPE
B: Ryan's Mammoth Collection of Fiddle Tunes
R: hornpipe
M: 2/4
L: 1/16
Z: Contributed 20000426195618 by John Chambers jchambers:casc.com
K: F
vAB \
| c=BcA d_Bfd | cAFA cAdc | BAGB AGFA | Gc=Bd c_BAB |
| c=BcA d_Bfd | cAFA cdef | defg  efga | f2f2f2 :|
|: (uef) \
| aAgA fAeA | fAeA dAfA | eA^ce agfe | fgef defg |
| aAgA fAeA | fAeA dAdf | efga bgeg | f2f2f2 :|
